Suru++-Ubuntu/actions/symbolic/file-catalog-symbolic.svg

<?xml version="1.0" encoding="UTF-8" standalone="no"?>
<!-- Created with Inkscape (http://www.inkscape.org/) -->

<svg
   xmlns:dc="http://purl.org/dc/elements/1.1/"
   xmlns:cc="http://creativecommons.org/ns#"
   xmlns:rdf="http://www.w3.org/1999/02/22-rdf-syntax-ns#"
   xmlns:svg="http://www.w3.org/2000/svg"
   xmlns="http://www.w3.org/2000/svg"
   xmlns:sodipodi="http://sodipodi.sourceforge.net/DTD/sodipodi-0.dtd"
   xmlns:inkscape="http://www.inkscape.org/namespaces/inkscape"
   width="16"
   height="16"
   id="svg2"
   version="1.1"
   inkscape:version="0.92.3 (2405546, 2018-03-11)"
   sodipodi:docname="file-catalog-symbolic.svg">
  <defs
     id="defs4">
    <marker
       inkscape:stockid="DiamondS"
       orient="auto"
       refY="0.0"
       refX="0.0"
       id="DiamondS"
       style="overflow:visible">
      <path
         id="path8477"
         d="M 0,-7.0710768 L -7.0710894,0 L 0,7.0710589 L 7.0710462,0 L 0,-7.0710768 z "
         style="fill-rule:evenodd;stroke:#000000;stroke-width:1.0pt"
         transform="scale(0.2)" />
    </marker>
    <marker
       inkscape:stockid="Arrow2Send"
       orient="auto"
       refY="0.0"
       refX="0.0"
       id="Arrow2Send"
       style="overflow:visible;">
      <path
         id="path8425"
         style="fill-rule:evenodd;stroke-width:0.62500000;stroke-linejoin:round;"
         d="M 8.7185878,4.0337352 L -2.2072895,0.016013256 L 8.7185884,-4.0017078 C 6.9730900,-1.6296469 6.9831476,1.6157441 8.7185878,4.0337352 z "
         transform="scale(0.3) rotate(180) translate(-2.3,0)" />
    </marker>
    <marker
       inkscape:stockid="Arrow1Lend"
       orient="auto"
       refY="0.0"
       refX="0.0"
       id="Arrow1Lend"
       style="overflow:visible;">
      <path
         id="path8395"
         d="M 0.0,0.0 L 5.0,-5.0 L -12.5,0.0 L 5.0,5.0 L 0.0,0.0 z "
         style="fill-rule:evenodd;stroke:#000000;stroke-width:1.0pt;"
         transform="scale(0.8) rotate(180) translate(12.5,0)" />
    </marker>
    <linearGradient
       id="linearGradient3946">
      <stop
         id="stop3948"
         offset="0"
         style="stop-color:#000000;stop-opacity:0.74698794;" />
      <stop
         id="stop3950"
         offset="1"
         style="stop-color:#000000;stop-opacity:0.02409638;" />
    </linearGradient>
    <linearGradient
       id="linearGradient3830-9">
      <stop
         style="stop-color:#000000;stop-opacity:0.74698794;"
         offset="0"
         id="stop3832-7" />
      <stop
         style="stop-color:#000000;stop-opacity:0.02409638;"
         offset="1"
         id="stop3834-5" />
    </linearGradient>
    <linearGradient
       id="linearGradient3984">
      <stop
         style="stop-color:#f4deba;stop-opacity:1;"
         offset="0"
         id="stop3986" />
      <stop
         style="stop-color:#de9625;stop-opacity:0;"
         offset="1"
         id="stop3988" />
    </linearGradient>
  </defs>
  <sodipodi:namedview
     id="base"
     pagecolor="#ffffff"
     bordercolor="#666666"
     borderopacity="1.0"
     inkscape:pageopacity="1"
     inkscape:pageshadow="2"
     inkscape:zoom="22.627417"
     inkscape:cx="-12.320083"
     inkscape:cy="10.068281"
     inkscape:document-units="px"
     inkscape:current-layer="layer1"
     showgrid="true"
     inkscape:snap-grids="true"
     inkscape:window-width="1920"
     inkscape:window-height="1009"
     inkscape:window-x="0"
     inkscape:window-y="34"
     inkscape:window-maximized="1"
     showborder="true"
     fit-margin-top="0"
     fit-margin-right="0"
     fit-margin-left="0"
     fit-margin-bottom="0"
     showguides="true"
     inkscape:guide-bbox="true">
    <inkscape:grid
       type="xygrid"
       id="grid7044"
       empspacing="8"
       visible="true"
       enabled="true"
       snapvisiblegridlinesonly="true"
       originx="-31.97559"
       originy="-816.00002"
       spacingx="1"
       spacingy="1" />
  </sodipodi:namedview>
  <metadata
     id="metadata7">
    <rdf:RDF>
      <cc:Work
         rdf:about="">
        <dc:format>image/svg+xml</dc:format>
        <dc:type
           rdf:resource="http://purl.org/dc/dcmitype/StillImage" />
        <dc:title></dc:title>
      </cc:Work>
    </rdf:RDF>
  </metadata>
  <g
     inkscape:label="Livello 1"
     inkscape:groupmode="layer"
     id="layer1"
     transform="translate(-31.97559,-220.36218)">
    <path
       style="fill:#808080;fill-opacity:1;stroke:none;opacity:0.75"
       d="M 10.03125 1 L 3.03125 4 L 3.03125 5 L 10.03125 2 L 10.03125 1 z M 3.03125 5 L 3.03125 14 L 10.03125 11 L 10.03125 5.28125 L 6.03125 7 L 3.03125 5 z "
       transform="translate(31.97559,220.36218)"
       id="path3796" />
    <path
       style="fill:#808080;fill-opacity:1;stroke:none"
       d="m 38,226.3622 7,-3 0,10 -7,3 z"
       id="path3031"
       inkscape:connector-curvature="0"
       sodipodi:nodetypes="ccccc" />
    <path
       inkscape:connector-curvature="0"
       id="path3819"
       d="m 38,226.3622 -3,-2 0,10 3,2 z"
       style="fill:#808080;fill-opacity:1;stroke:none"
       sodipodi:nodetypes="ccccc" />
    <path
       sodipodi:nodetypes="ccccc"
       inkscape:connector-curvature="0"
       id="path3801"
       d="m 35,225.3622 3,2 7,-3 -3,-2 z"
       style="opacity:0.25;fill:#808080;fill-opacity:1;stroke:none" />
  </g>
</svg>

<!-- Created with Inkscape (http://www.inkscape.org/) -->
<svg width="16" height="16" version="1.1" xmlns="http://www.w3.org/2000/svg">
 <g transform="translate(-31.97559,-220.36218)">
  <path transform="translate(31.97559,220.36218)" d="m10.03125 1-7 3v1l7-3v-1zm-7 4v9l7-3v-5.71875l-4 1.71875-3-2z" style="fill:#808080;opacity:.75"/>
  <path d="m38 226.3622 7-3v10l-7 3z" style="fill:#808080"/>
  <path d="m38 226.3622-3-2v10l3 2z" style="fill:#808080"/>
  <path d="m35 225.3622 3 2 7-3-3-2z" style="fill:#808080;opacity:.25"/>
 </g>
</svg>
